icon/pk/security.svg

<svg viewBox="0 0 48 48" fill="none" xmlns="http://www.w3.org/2000/svg" height="1em" width="1em">
  <path d="M42 26V22C42 12.0589 33.9411 4 24 4V4C14.0589 4 6 12.0589 6 22V26" stroke="black" stroke-width="4" stroke-linecap="round" stroke-linejoin="round"/>
  <path d="M32 27V12C32 7.58172 28.4183 4 24 4V4C19.5817 4 16 7.58172 16 12V27" stroke="black" stroke-width="4" stroke-linecap="round" stroke-linejoin="round"/>
  <path d="M24 24V38C24 41.3137 26.6863 44 30 44V44C33.3137 44 36 41.3137 36 38V35.1111" stroke="black" stroke-width="4" stroke-linecap="round" stroke-linejoin="round"/>
  <path d="M12 24H42" stroke="black" stroke-width="4" stroke-linecap="round" stroke-linejoin="round"/>
</svg>

<svg width="48" height="48" fill="none" xmlns="http://www.w3.org/2000/svg"><path d="M42 26v-4c0-9.941-8.059-18-18-18v0C14.059 4 6 12.059 6 22v4" stroke="#000" stroke-width="4" stroke-linecap="round" stroke-linejoin="round"/><path d="M32 27V12a8 8 0 0 0-8-8v0a8 8 0 0 0-8 8v15" stroke="#000" stroke-width="4" stroke-linecap="round" stroke-linejoin="round"/><path d="M24 24v14a6 6 0 0 0 6 6v0a6 6 0 0 0 6-6v-2.889M12 24h30" stroke="#000" stroke-width="4" stroke-linecap="round" stroke-linejoin="round"/></svg>
